public/icons/playlist.svg

<?xml version="1.0" encoding="utf-8"?><!-- Uploaded to: SVG Repo, www.svgrepo.com, Generator: SVG Repo Mixer Tools -->
<svg width="800px" height="800px" viewBox="0 0 24 24" fill="none" xmlns="http://www.w3.org/2000/svg">
<path fill-rule="evenodd" clip-rule="evenodd" d="M2.25 6C2.25 5.58579 2.58579 5.25 3 5.25H21C21.4142 5.25 21.75 5.58579 21.75 6C21.75 6.41421 21.4142 6.75 21 6.75H3C2.58579 6.75 2.25 6.41421 2.25 6ZM2.25 10C2.25 9.58579 2.58579 9.25 3 9.25H21C21.4142 9.25 21.75 9.58579 21.75 10C21.75 10.4142 21.4142 10.75 21 10.75H3C2.58579 10.75 2.25 10.4142 2.25 10ZM2.25 14C2.25 13.5858 2.58579 13.25 3 13.25H11C11.4142 13.25 11.75 13.5858 11.75 14C11.75 14.4142 11.4142 14.75 11 14.75H3C2.58579 14.75 2.25 14.4142 2.25 14ZM2.25 18C2.25 17.5858 2.58579 17.25 3 17.25H11C11.4142 17.25 11.75 17.5858 11.75 18C11.75 18.4142 11.4142 18.75 11 18.75H3C2.58579 18.75 2.25 18.4142 2.25 18Z" fill="#ff8800"/>
<path d="M18.875 14.1184C20.5288 15.0733 21.3558 15.5507 21.4772 16.2395C21.5076 16.4118 21.5076 16.5882 21.4772 16.7605C21.3558 17.4493 20.5288 17.9267 18.875 18.8816C17.2212 19.8364 16.3942 20.3138 15.737 20.0746C15.5725 20.0148 15.4199 19.9266 15.2858 19.8141C14.75 19.3645 14.75 18.4097 14.75 16.5C14.75 14.5903 14.75 13.6355 15.2858 13.1859C15.4199 13.0734 15.5725 12.9852 15.737 12.9254C16.3942 12.6862 17.2212 13.1636 18.875 14.1184Z" fill="#ff8800"/>
</svg>

<svg width="800" height="800" viewBox="0 0 24 24" fill="none" xmlns="http://www.w3.org/2000/svg"><path fill-rule="evenodd" clip-rule="evenodd" d="M2.25 6A.75.75 0 0 1 3 5.25h18a.75.75 0 0 1 0 1.5H3A.75.75 0 0 1 2.25 6zm0 4A.75.75 0 0 1 3 9.25h18a.75.75 0 0 1 0 1.5H3a.75.75 0 0 1-.75-.75zm0 4a.75.75 0 0 1 .75-.75h8a.75.75 0 0 1 0 1.5H3a.75.75 0 0 1-.75-.75zm0 4a.75.75 0 0 1 .75-.75h8a.75.75 0 0 1 0 1.5H3a.75.75 0 0 1-.75-.75z" fill="#f80"/><path d="M18.875 14.118c1.654.955 2.48 1.433 2.602 2.121a1.5 1.5 0 0 1 0 .521c-.121.69-.948 1.167-2.602 2.122-1.654.954-2.48 1.432-3.138 1.193a1.499 1.499 0 0 1-.451-.26c-.536-.45-.536-1.405-.536-3.315s0-2.864.536-3.314c.134-.113.287-.2.451-.26.657-.24 1.484.238 3.138 1.192z" fill="#f80"/></svg>
